X:1
T:Title
%%score { ( 1 3 ) | 2 }
L:1/8
Q:1/4=100
M:6/4
K:Db
V:1 treble nm="Grand Piano"
V:3 treble 
V:2 bass 
V:1
 [FA]2 [GB]2 [FA]2 F3 E D2 | [Fd]2 [Fe]2 [DAd]2 [DGB]6 | %2
w: Charles~Gabriel * * * * *||
 [DBd]2 [DAc]2 [DGB]2 [DFA]3 [A,EG] [A,DF]2 | [=G,DF]2 [G,DE]2 [G,D]2 [A,CE]4 [CGA]2 | %4
w: ||
 [FA]2 [GB]2 [FA]2 F3 E D2 | [Fd]2 [Fe]2 [Ad]2 [GB]6 | [Bd]2 [Ac]2 B2 A3 d F2 | %7
w: |||
 [FA]2 [EG]2 [CE]2 D6 | c2 c2 d2 e3 c A2 | z6 [Fd]6 | B2 B2 [Ac]2 [Ad]3 [Ac] [Ad]2 | %11
w: ||||
 [=Ge]2 [Ge]2 [Gf]2 [Ae]6 | [Af]2 [Ge]2 [Fd]2 [FA]4 [FA]2 | [Af]2 [Ae]2 [Ad]2 [GB]6 | %14
w: |||
 [Bd]2 [Ac]2 B2 A3 d F2 | %15
w: |
 A2 B2 [Ec]2 [Fd]6[Q:1/4=98][Q:1/4=97][Q:1/4=95][Q:1/4=94][Q:1/4=92][Q:1/4=91][Q:1/4=89][Q:1/4=88][Q:1/4=86][Q:1/4=84][Q:1/4=83][Q:1/4=81][Q:1/4=80][Q:1/4=78][Q:1/4=77] |] %16
w: |
V:2
 [D,D]2 [D,D]2 [D,D]2 [D,A,D]3 [D,G,D] [D,F,]2 | [D,A,]2 [D,A,]2 F,2 G,6 | G,2 G,2 G,2 D,3 D, D,2 | %3
 B,,2 B,,2 B,,2 A,,4 A,,2 | [D,D]2 [D,D]2 [D,D]2 [D,A,D]3 [D,G,D] [D,F,]2 | %5
 [D,A,]2 [D,A,]2 [F,D]2 [G,D]6 | [G,D]2 [G,D]2[K:treble] [G,DG]2 [A,DF]3 [A,F][K:bass] [A,D]2 | %7
 [A,,A,]2 [A,,A,]2 [A,,G,]2 [D,F,]6 | [A,E]2 [A,E]2 [A,F]2 [A,CG]3 [A,EG] [A,CG]2 | %9
 [D,A,]2 [D,A,]3 [D,A,] .[D,A,]6 | [G,DG]2 [G,DG]2 [G,E]2 [F,D]3 [G,E] [F,D]2 | %11
 [E,D]2 [E,B,]2 [E,D]2 [A,C]6 | [D,D]2 [D,D]2 [D,D]2 [D,D]4 [D,D]2 | [D,D]2 [E,C]2 [F,D]2 [G,D]6 | %14
 [G,D]2 [G,D]2[K:treble] [G,DG]2 [A,DF]3 [A,F][K:bass] [A,D]2 | [A,C]2 [A,D]2 [A,,A,]2 [D,A,]6 |] %16
V:3
 x12 | x12 | x12 | x12 | x12 | x12 | x12 | x12 | x12 | [Fd]2 [Fd]3 [Ge] z4 D2 | x12 | x12 | x12 | %13
 x12 | x12 | x12 |] %16

